X: 112
T:Limerick Lassies, The
M:C|
L:1/8
S:Trad,
R:reel
Z:Set: Limerick Lassies/Old Copper Plate/Buckley's Fancy
K:D
c2|dBAF DEFD|GFGA BE~E2|dBAF DFAF|GBAG FD~D2|!
dBAF DFAF|GFGA BE~E2|~d2cd (3Bcd AF|GBAG FD~D2||!
dcde fgfe|dcde fB~B2|dcde ~f2 bf| afeg fABc|!
dcde fgfe|dcde fB~B2|bf~f2 afdB|ABde fdeB||!
Adfd adfd|Adfd cdec|Adfd adfd|(3fga eg fd~d2|!
Adfd adfd|Adfd cdeg|fgfe dBAF|ABde fd~d2||!
(3Bcd Ad BdAd|~B2Ad BE~E2|(3Bcd Ad BAFB|ABde fd~d2|!
(3Bcd Ad BdAd|~B2Ad BE~E2|BAFB AFEF|ABde fd d2||
